X:1
T:Minuet in A minor
T:Minuet in A minor
T:BWV anh 120
T:Johann Sebastian Bach
T:A.M
C:Johann Sebastian Bach
Z:A.M
%%score { 1 | 2 }
L:1/8
M:3/4
K:C
V:1 treble nm="Piano" snm="Pno."
V:2 bass 
V:1
"_deciso" .E2 | (A>B c2) .B2 | (c2 A2) !>!e2- | e2 (edcB | c2 A2)"_espress." (!>!f2- | f2 e2 ^d2 | %6
 e2 B2)!>(! (!>!e2- | e2 d2 ^c2 | d2 A2) (!>!d2- | d2 c2 B2 | c2 G2)!>)!!p! (c2 | BcdBfA | ^G4) :: %13
!f! G2 | (c>d e2) (d2 | e2 c2) !>!g2- | g2 (gfed | e2 c2) (a2- | a2 g2 ^f2 | g2 d2)!<(! (e2 | %20
 f2) (d4!<)! | c4)!p! (e2 | f2) (!trill(!T^f3 e/f/ | g2 d2) (^f2 |!<(! g2) (!trill(!T^g3 ^f/g/ | %25
 a2 e2) (a2 | f2) .e2 .d2 | (e2 E2)!<)!!f! (A2 | d2) (!trill(!TB4 | A4) :| %30
V:2
!f! z2 | z2 z2 .E,2 | (A,>B, C2) .B,2 | C2 A,2 !>!E2- | E2 (EDCB, | A,2) .A,2 (A,2 | %6
 ^G,2) .G,2 (G,2 | G,2) .G,2 (G,2 | ^F,2) .F,2 (F,2 | F,2) .F,2 (F,2 | E,2) .E,2 (E,2 | %11
 D,2) .D,2 (D,2 | .E,2) .E,,2 :: z2 | z2 z2 .G,2 |[K:treble] (C>D E2) .D2 | (E2 C2) !>!G2- | %17
 G2 (GFED | C2) .C2 (C2 |[K:bass] B,2 G,2) (C2 | A,2) F,2 G,2 | C,2 C,,2 z2 | z2 z2 (C,2 | %23
 _B,,2) (!trill(!T=B,,3/2A,,/4B,,/4 C,2 | B,,2 E,,2) (B,,2 | C,2) (!trill(!T^C,3/2B,,/4C,/4 A,,2) | %26
 .D,2 .E,2 .F,2 | C,4 (F,2 | D,2) (E,2 E,,2) | A,,4 :| %30

